X:711
%%etbk:tnset id:455,pos:3,rep:3x,ant:
%%etbk:wsite https://thesession.org/tunes/5306
%%etbk:pldat 2016-09-08T18:05,2016-07-19T20:35,2016-07-15T16:12,2016-06-13T16:51,2016-06-12T14:16,2016-05-25T16:19,2016-05-24T16:11,2016-05-23T18:48,2016-03-31T17:35,2016-01-01T15:44,2015-12-24T15:39,2015-12-22T16:08,2015-12-21T18:51,2015-11-29T15:40,2015-08-23T15:14,2015-08-19T17:34,2015-08-15T16:20,2015-08-10T18:26,2015-07-19T14:11,2015-07-17T15:59,2015-06-06T14:32,2015-06-03T18:09,2015-06-01T16:38,2015-05-20T16:03,2015-05-10T10:55,2015-05-05T17:53
T: Lass Of Carracastle
Z: Piano Box Version by Martin Fleischmann
H: Created 2015-04-29 /  Last Modified 2015-07-17
R: reel
M: 4/4
L: 1/8
K: Dmaj
"D"!3!AF!5!d!4!B !3!A2 FA |!4!BdA!2!F "A"!3!GFEG |"D"!2!FD3 !2!F!1!GA!5!d |1 "A"!3!c!1!deg "D"fd!1!d!2!B :|2 "A"cdeg "D"fdde ||
"D"!3!fgaf "G"g2 ef | "A"!4!gfed !3!ce A2 | "D"!3!faaf "G"!4!g3 (3efg | "A"!5!afeg "D"fdde |
"D"!3!fAaf "G"g2 ef | "A"!4!gfe!1!d !3!c2A!3!c | "G"!2!BABd "A"!3!c3!5!e | "D"!1!dfag f!1!d!3!d!2!B||


